Sources/FrostedUI/Resources/Icons.xcassets/chat24.imageset/chat-24.svg

<svg width="24" height="24" viewBox="0 0 24 24" fill="none" xmlns="http://www.w3.org/2000/svg" data-fui-icon="true">
  <path
    fill-rule="evenodd"
    clip-rule="evenodd"
    d="M12.0001 1.875C17.5919 1.87514 22.1251 6.4082 22.1251 12C22.1251 17.5918 17.5919 22.1249 12.0001 22.125C11.1981 22.125 10.4172 22.0308 9.66812 21.8535C8.45684 21.5668 7.37296 21.3787 6.37319 21.6406C5.73055 21.809 5.11114 21.9954 4.54604 22.1787C3.71034 22.4498 2.89782 22.132 2.38296 21.6172C1.8681 21.1023 1.55037 20.2899 1.82144 19.4541C2.00481 18.8888 2.1913 18.2692 2.35952 17.626C2.62096 16.6262 2.43195 15.543 2.14565 14.332C1.96854 13.5829 1.87515 12.8019 1.87515 12C1.87515 6.40815 6.40834 1.87507 12.0001 1.875ZM12.0001 3.375C7.23673 3.37507 3.37515 7.2366 3.37515 12L3.38979 12.5098C3.41937 13.0153 3.4927 13.5086 3.60561 13.9863C3.88978 15.1882 4.17647 16.6059 3.81069 18.0049C3.63393 18.6808 3.43989 19.3291 3.24917 19.917C3.18605 20.1116 3.24277 20.3559 3.44351 20.5566C3.64422 20.7573 3.88862 20.8141 4.08315 20.751C4.6704 20.5605 5.31801 20.3664 5.99331 20.1895C7.39265 19.8229 8.81063 20.109 10.0128 20.3936C10.65 20.5443 11.3155 20.625 12.0001 20.625C16.7635 20.6249 20.6251 16.7634 20.6251 12C20.6251 7.23663 16.7635 3.37514 12.0001 3.375ZM7.75015 10.75C8.44042 10.7501 9.00015 11.3097 9.00015 12C9.00015 12.6903 8.44042 13.2499 7.75015 13.25C7.05979 13.25 6.50015 12.6904 6.50015 12C6.50015 11.3096 7.05979 10.75 7.75015 10.75ZM12.0001 10.75C12.6904 10.7501 13.2501 11.3097 13.2501 12C13.2501 12.6903 12.6904 13.2499 12.0001 13.25C11.3098 13.25 10.7501 12.6904 10.7501 12C10.7501 11.3096 11.3098 10.75 12.0001 10.75ZM16.2501 10.75C16.9404 10.7501 17.5001 11.3097 17.5001 12C17.5001 12.6903 16.9404 13.2499 16.2501 13.25C15.5598 13.25 15.0001 12.6904 15.0001 12C15.0001 11.3096 15.5598 10.75 16.2501 10.75Z"
    fill="currentColor"
  />
</svg>

<svg xmlns="http://www.w3.org/2000/svg" width="24" height="24" fill="none" data-fui-icon="true" viewBox="0 0 24 24"><path fill="currentColor" fill-rule="evenodd" d="M12 1.875c5.592 0 10.125 4.533 10.125 10.125S17.592 22.125 12 22.125c-.802 0-1.583-.094-2.332-.271-1.211-.287-2.295-.475-3.295-.213a33 33 0 0 0-1.827.538c-.836.27-1.648-.047-2.163-.562s-.833-1.327-.562-2.163c.184-.565.37-1.185.539-1.828.261-1 .072-2.083-.214-3.294-.177-.75-.27-1.53-.27-2.332C1.875 6.408 6.407 1.875 12 1.875m0 1.5A8.625 8.625 0 0 0 3.375 12l.015.51q.046.759.216 1.476c.284 1.202.57 2.62.205 4.019a35 35 0 0 1-.562 1.912c-.063.195-.006.439.195.64.2.2.445.257.64.194.586-.19 1.234-.385 1.91-.562 1.399-.366 2.817-.08 4.019.205A8.625 8.625 0 1 0 12 3.375M7.75 10.75a1.25 1.25 0 1 1 0 2.5 1.25 1.25 0 0 1 0-2.5m4.25 0a1.25 1.25 0 1 1 0 2.5 1.25 1.25 0 0 1 0-2.5m4.25 0a1.25 1.25 0 1 1 0 2.5 1.25 1.25 0 0 1 0-2.5" clip-rule="evenodd"/></svg>
